icons/netease-cloud-music-gtk.svg

<?xml version="1.0" encoding="UTF-8" standalone="no"?>
<svg
   xmlns:dc="http://purl.org/dc/elements/1.1/"
   xmlns:cc="http://creativecommons.org/ns#"
   xmlns:rdf="http://www.w3.org/1999/02/22-rdf-syntax-ns#"
   xmlns:svg="http://www.w3.org/2000/svg"
   xmlns="http://www.w3.org/2000/svg"
   xmlns:sodipodi="http://sodipodi.sourceforge.net/DTD/sodipodi-0.dtd"
   xmlns:inkscape="http://www.inkscape.org/namespaces/inkscape"
   width="48px"
   height="48px"
   viewBox="0 0 48 48"
   version="1.1"
   id="svg25"
   sodipodi:docname="netease-cloud-music.svg"
   inkscape:export-filename="/home/gmg/projects/NEMusic/icons/netease-cloud-music.svg.png"
   inkscape:export-xdpi="96"
   inkscape:export-ydpi="96"
   inkscape:version="0.92.4 (5da689c313, 2019-01-14)">
  <metadata
     id="metadata29">
    <rdf:RDF>
      <cc:Work
         rdf:about="">
        <dc:format>image/svg+xml</dc:format>
        <dc:type
           rdf:resource="http://purl.org/dc/dcmitype/StillImage" />
        <dc:title>Artboard 1</dc:title>
      </cc:Work>
    </rdf:RDF>
  </metadata>
  <sodipodi:namedview
     pagecolor="#ffffff"
     bordercolor="#666666"
     borderopacity="1"
     objecttolerance="10"
     gridtolerance="10"
     guidetolerance="10"
     inkscape:pageopacity="0"
     inkscape:pageshadow="2"
     inkscape:window-width="1920"
     inkscape:window-height="1016"
     id="namedview27"
     showgrid="false"
     inkscape:zoom="4.9166667"
     inkscape:cx="-53.005731"
     inkscape:cy="-34.977827"
     inkscape:window-x="0"
     inkscape:window-y="27"
     inkscape:window-maximized="1"
     inkscape:current-layer="Page-1" />
  <!-- Generator: Sketch 3.6.1 (26313) - http://www.bohemiancoding.com/sketch -->
  <title
     id="title2">Artboard 1</title>
  <desc
     id="desc4">Created with Sketch.</desc>
  <defs
     id="defs19">
    <filter
       x="-50%"
       y="-50%"
       width="200%"
       height="200%"
       filterUnits="objectBoundingBox"
       id="filter-1">
      <feOffset
         dx="0"
         dy="1"
         in="SourceAlpha"
         result="shadowOffsetOuter1"
         id="feOffset6" />
      <feGaussianBlur
         stdDeviation="0.5"
         in="shadowOffsetOuter1"
         result="shadowBlurOuter1"
         id="feGaussianBlur8" />
      <feColorMatrix
         values="0 0 0 0 0   0 0 0 0 0   0 0 0 0 0  0 0 0 0.21 0"
         in="shadowBlurOuter1"
         type="matrix"
         result="shadowMatrixOuter1"
         id="feColorMatrix10" />
      <feMerge
         id="feMerge16">
        <feMergeNode
           in="shadowMatrixOuter1"
           id="feMergeNode12" />
        <feMergeNode
           in="SourceGraphic"
           id="feMergeNode14" />
      </feMerge>
    </filter>
  </defs>
  <g
     id="Page-1"
     stroke="none"
     stroke-width="1"
     fill="none"
     fill-rule="evenodd">
    <path
       style="fill:#333333;filter:url(#filter-1)"
       d="m 10.5,5 h 27 c 3.047,0 5.5,2.453 5.5,5.5 v 27 c 0,3.047 -2.453,5.5 -5.5,5.5 h -27 C 7.453,43 5,40.547 5,37.5 v -27 C 5,7.453 7.453,5 10.5,5 Z"
       id="Rectangle-1"
       inkscape:connector-curvature="0" />
    <g
       id="Artboard-1"
       fill="#FEFEFE">
      <path
         d="M26.6977,24.5449 C26.6977,25.8329 25.6467,26.8809 24.3557,26.8809 C22.9227,26.8809 22.1327,25.5789 22.0047,24.3709 C21.7607,22.0669 22.9677,20.8129 24.0237,20.1679 C24.4527,19.9069 24.9227,19.7029 25.4147,19.5539 C25.4147,19.5539 26.5527,23.1659 26.6417,23.7269 C26.7397,24.3449 26.6977,24.5449 26.6977,24.5449 M32.2917,17.2999 C31.0327,16.4839 29.4897,16.0359 27.9007,15.9559 L27.5457,14.6579 L27.5567,14.6709 C27.5427,14.6319 27.5307,14.5939 27.5187,14.5569 L27.4137,14.1729 C27.1717,13.0629 27.6117,12.5339 27.8377,12.3439 C27.8767,12.3149 27.9157,12.2849 27.9587,12.2569 C28.9957,11.5689 30.4707,12.6719 30.5537,12.7369 C31.2087,13.3669 32.4067,13.5229 33.0537,12.8779 C33.7067,12.2269 33.5527,11.0079 32.8997,10.3569 C31.8827,9.3429 28.7607,7.7159 26.1037,9.4819 C23.7157,11.0689 23.6677,13.3029 24.0607,14.5939 L24.5377,16.3399 C23.7387,16.5689 22.9747,16.8969 22.2747,17.3239 C19.6607,18.9209 18.3497,21.6169 18.6767,24.7199 C19.0157,27.9039 21.4017,30.2169 24.3557,30.2169 C27.4907,30.2169 30.0427,27.6719 30.0427,24.5449 C30.0007,23.7989 30.0087,23.8069 29.9097,23.1399 C29.8107,22.4889 28.8467,19.4289 28.8467,19.4289 C29.4387,19.5649 29.9917,19.7879 30.4697,20.0969 C35.8627,23.5919 33.6177,29.1559 33.5177,29.3979 C32.0337,32.9529 28.7927,35.0749 24.6317,35.2199 C21.9197,35.3159 19.3207,34.3049 17.3137,32.3729 C15.1977,30.3359 13.9847,27.4829 13.9847,24.5449 C13.9847,20.1209 16.7757,16.1019 20.9287,14.5479 C21.7937,14.2249 22.4917,13.3029 22.0137,12.2319 C21.6377,11.3899 20.6187,11.1009 19.7527,11.4259 C14.3017,13.4649 10.6387,18.7379 10.6387,24.5449 C10.6387,28.3829 12.2247,32.1109 14.9897,34.7729 C17.5407,37.2269 20.8217,38.5629 24.2767,38.5619 C24.4337,38.5619 24.5917,38.5599 24.7487,38.5539 C30.1937,38.3629 34.6257,35.4199 36.5987,30.6969 C37.8327,27.8279 38.5197,21.3359 32.2917,17.2999"
         id="Fill-9"
         style="fill:#ffd42a" />
    </g>
  </g>
</svg>

<?xml version="1.0" encoding="UTF-8"?>
<svg width="50" height="50" version="1.1" viewBox="0 0 50 50" xmlns="http://www.w3.org/2000/svg" xmlns:cc="http://creativecommons.org/ns#" xmlns:dc="http://purl.org/dc/elements/1.1/" xmlns:rdf="http://www.w3.org/1999/02/22-rdf-syntax-ns#" xmlns:xlink="http://www.w3.org/1999/xlink">
 <metadata>
  <rdf:RDF>
   <cc:Work rdf:about="">
    <dc:format>image/svg+xml</dc:format>
    <dc:type rdf:resource="http://purl.org/dc/dcmitype/StillImage"/>
    <dc:title>Artboard 1</dc:title>
   </cc:Work>
  </rdf:RDF>
 </metadata>
 <!-- Generator: Sketch 3.6.1 (26313) - http://www.bohemiancoding.com/sketch -->
 <title>Artboard 1</title>
 <desc>Created with Sketch.</desc>
 <defs>
  <filter id="filter-1" x="-.5" y="-.5" width="2" height="2">
   <feOffset dx="0" dy="1" in="SourceAlpha" result="shadowOffsetOuter1"/>
   <feGaussianBlur in="shadowOffsetOuter1" result="shadowBlurOuter1" stdDeviation="0.5"/>
   <feColorMatrix in="shadowBlurOuter1" result="shadowMatrixOuter1" values="0 0 0 0 0   0 0 0 0 0   0 0 0 0 0  0 0 0 0.21 0"/>
   <feMerge>
    <feMergeNode in="shadowMatrixOuter1"/>
    <feMergeNode in="SourceGraphic"/>
   </feMerge>
  </filter>
  <clipPath id="clipPath113">
   <use width="100%" height="100%" xlink:href="#g109"/>
  </clipPath>
 </defs>
 <g fill="none" fill-rule="evenodd">
  <g transform="matrix(1.3158 0 0 1.3158 -6.5789 -6.5789)">
   <g clip-path="url(#clipPath113)">
    <g id="g109">
     <path d="m10.5 5h27c3.047 0 5.5 2.453 5.5 5.5v27c0 3.047-2.453 5.5-5.5 5.5h-27c-3.047 0-5.5-2.453-5.5-5.5v-27c0-3.047 2.453-5.5 5.5-5.5z" fill="#333" filter="url(#filter-1)"/>
    </g>
   </g>
   <g fill="#FEFEFE">
    <path d="m26.698 24.545c0 1.288-1.051 2.336-2.342 2.336-1.433 0-2.223-1.302-2.351-2.51-0.244-2.304 0.963-3.558 2.019-4.203 0.429-0.261 0.899-0.465 1.391-0.614 0 0 1.138 3.612 1.227 4.173 0.098 0.618 0.056 0.818 0.056 0.818m5.594-7.245c-1.259-0.816-2.802-1.264-4.391-1.344l-0.355-1.298 0.011 0.013c-0.014-0.039-0.026-0.077-0.038-0.114l-0.105-0.384c-0.242-1.11 0.198-1.639 0.424-1.829 0.039-0.029 0.078-0.059 0.121-0.087 1.037-0.688 2.512 0.415 2.595 0.48 0.655 0.63 1.853 0.786 2.5 0.141 0.653-0.651 0.499-1.87-0.154-2.521-1.017-1.014-4.139-2.641-6.796-0.875-2.388 1.587-2.436 3.821-2.043 5.112l0.477 1.746c-0.799 0.229-1.563 0.557-2.263 0.984-2.614 1.597-3.925 4.293-3.598 7.396 0.339 3.184 2.725 5.497 5.679 5.497 3.135 0 5.687-2.545 5.687-5.672-0.042-0.746-0.034-0.738-0.133-1.405-0.099-0.651-1.063-3.711-1.063-3.711 0.592 0.136 1.145 0.359 1.623 0.668 5.393 3.495 3.148 9.059 3.048 9.301-1.484 3.555-4.725 5.677-8.886 5.822-2.712 0.096-5.311-0.915-7.318-2.847-2.116-2.037-3.329-4.89-3.329-7.828 0-4.424 2.791-8.443 6.944-9.997 0.865-0.323 1.563-1.245 1.085-2.316-0.376-0.842-1.395-1.131-2.261-0.806-5.451 2.039-9.114 7.312-9.114 13.119 0 3.838 1.586 7.566 4.351 10.228 2.551 2.454 5.832 3.79 9.287 3.789 0.157 0 0.315-2e-3 0.472-8e-3 5.445-0.191 9.877-3.134 11.85-7.857 1.234-2.869 1.921-9.361-4.307-13.397" fill="#ffd42a"/>
   </g>
  </g>
 </g>
</svg>
